X: 1685
T: March Hare
C:Phillip Green (1911 - 1982)
B: australian traditional tunes wiki
M:4/4
L:1/8
R: March
Q: 1/4=100
K:Em
V:1 
(3B,CD|:"Em"E2B2B2A>B|"G"(3GAG F>E "D"D>E (3FED|"Em"E>D E>F "G"G>F G>A|B>c d>c "B7"B>A (3GFE|
"Em"B,2E2E2E>F|"G"(3GAG F>E "D"D>E (3FED|"Em"E>F (3GFE "D"D>E (3FED|1"Em"E2E2E2"fine"(3B,CD:|2"Em"E2E2E2E>F||
|:"G"G2G>AB2B>c|d>e d>c B>A (3GFE|"D"D2D>EF2F>G|A2A>G F>E (3DEF|
"Em"E2E>F"G"G2G>A|"Em"B>c d>c B>A (3GFD|E>F (3GFE D>E (3FED|1"Em"E2E2E2E>F:|2"Em"E2E2E2(3EFG||
|:"Am"A2A2A2 G>E|D>C D>E D>CA,2|A2A2A2A>B|"G"(3cdc B>A "Em"G>A (3BAG|"Am"A2A2A2G>E|
D>C D>E D>C A,>B,|1"C"C>D (3EDC "G"B,C (3FCB,|"Am"A,2A,2A,2C>E:|2"C"(3CDC B,>A, G,>A, (3B,A,G,|"Am"A,2A,2"D.C. al Fine"A,2 (3B,CD||
% abcbook-tune_id 6342d53aba5ee6fc9314d1ae


% abcbook-boost 0
% abcbook-tablature 
% abcbook-transpose 
% abcbook-lastupdated 1665324377862
% abcbook-soundfonts 
% abcbook-repeats 1
% NFF Book 2019

